X: 12711
T: Father John Angus Rankin
R: reel
M: 4/4
K: Bminor
C|B,2 BA BdcB|cAeA cAAC|B,2 BA BdcB|cfec dBBC|
B,2 BA B/c/d cB|cAeA cAAe|fedc d2 c/B/A|FDEC DB,B,|
g|f2 df afdf|cAeA cAAg|f/f/f df afdf|cAec dB B/B/g|
f/g/f df af d/e/f|A/A/A cA eA A/A/e|fedc dcBA|FDEC B,3||

